src/components/pages/Home/assets/illustrationProducer.svg

<?xml version="1.0" encoding="UTF-8"?>
<svg width="89px" height="62px" viewBox="0 0 89 62" version="1.1" xmlns="http://www.w3.org/2000/svg" xmlns:xlink="http://www.w3.org/1999/xlink">
    <title>illustrationProducer</title>
    <g id="Page-1" stroke="none" stroke-width="1" fill="none" fill-rule="evenodd">
        <g id="illustrationProducer">
            <g id="Background">
                <path d="M84.1000184,40 C84.0984701,23.6646106 74.1640168,8.97150733 59.0050828,2.88449909 C43.8461489,-3.20250915 26.5090288,0.539804837 15.2106656,12.3377681 C3.91230241,24.1357314 0.923181775,41.6184602 7.66,56.5 L80.54,56.5 C82.8915581,51.3174045 84.105467,45.6911416 84.1000184,40 L84.1000184,40 Z" id="Path" fill="#F0F2FF" fill-rule="nonzero"></path>
                <line x1="5.1" y1="56.5" x2="83.1" y2="56.5" id="Path" stroke="#4550E5" stroke-linecap="round" stroke-linejoin="round"></line>
                <line x1="0.6" y1="56.5" x2="3.1" y2="56.5" id="Path" stroke="#4550E5" stroke-linecap="round" stroke-linejoin="round"></line>
                <line x1="85.1" y1="56.5" x2="87.6" y2="56.5" id="Path" stroke="#4550E5" stroke-linecap="round" stroke-linejoin="round"></line>
            </g>
            <g id="Scene" transform="translate(7.000000, 16.000000)">
                <rect id="Rectangle" fill="#FFFFFF" fill-rule="nonzero" x="18.7" y="21.24" width="37.2" height="18"></rect>
                <ellipse id="Oval" fill="#F0F2FF" fill-rule="nonzero" cx="37.39" cy="43.74" rx="23.49" ry="1.5"></ellipse>
                <rect id="Rectangle" stroke="#4550E5" stroke-linejoin="round" x="18.7" y="21.24" width="37.2" height="18"></rect>
                <path d="M18.7,39.24 L55.9,39.24 C57.2254834,39.24 58.3,40.3145166 58.3,41.64 L58.3,41.84 C58.3,42.3922847 57.8522847,42.84 57.3,42.84 L17.3,42.84 C16.7477153,42.84 16.3,42.3922847 16.3,41.84 L16.3,41.64 C16.3,41.0034804 16.5528564,40.393031 17.0029437,39.9429437 C17.453031,39.4928564 18.0634804,39.24 18.7,39.24 Z" id="Path" stroke="#4550E5" fill="#D6DAFF" fill-rule="nonzero" stroke-linejoin="round"></path>
                <rect id="Rectangle" fill="#D6DAFF" fill-rule="nonzero" x="17.5" y="17.64" width="39.6" height="3.6" rx="1.2"></rect>
                <rect id="Rectangle" stroke="#4550E5" stroke-linejoin="round" x="17.5" y="17.64" width="39.6" height="3.6" rx="1.2"></rect>
                <rect id="Rectangle" stroke="#4550E5" fill="#D6DAFF" fill-rule="nonzero" stroke-linejoin="round" x="49.9" y="12.84" width="4.2" height="4.8"></rect>
                <path d="M30.7,14 L43.9,14 C44.2182598,14 44.5234845,14.1264282 44.7485281,14.3514719 C44.9735718,14.5765155 45.1,14.8817402 45.1,15.2 L45.1,17.6 L29.5,17.6 L29.5,15.2 C29.5,14.5372583 30.0372583,14 30.7,14 Z" id="Path" fill="#D6DAFF" fill-rule="nonzero"></path>
                <path d="M30.7,14 L43.9,14 C44.2182598,14 44.5234845,14.1264282 44.7485281,14.3514719 C44.9735718,14.5765155 45.1,14.8817402 45.1,15.2 L45.1,17.6 L29.5,17.6 L29.5,15.2 C29.5,14.5372583 30.0372583,14 30.7,14 Z" id="Path" stroke="#4550E5" stroke-linejoin="round"></path>
                <path d="M55,11.87 L52.2,10.69 L54.2,5.97 C54.525848,5.1968014 55.4168013,4.83415208 56.19,5.16000007 C56.9631986,5.48584806 57.325848,6.37680136 57,7.15 L55,11.87 Z" id="Path" fill="#D6DAFF" fill-rule="nonzero"></path>
                <path d="M55,11.87 L52.2,10.69 L54.2,5.97 C54.525848,5.1968014 55.4168013,4.83415208 56.19,5.16000007 C56.9631986,5.48584806 57.325848,6.37680136 57,7.15 L55,11.87 Z" id="Path" stroke="#4550E5" stroke-linejoin="round"></path>
                <path d="M52.2,10.69 L52,10.69 C50.1887199,10.6393329 48.5291786,11.6968449 47.81,13.36 C47.6313672,13.7529921 47.6759625,14.2114313 47.9269873,14.5626279 C48.1780121,14.9138246 48.5973297,15.1044235 49.0269873,15.0626279 C49.4566449,15.0208324 49.8313672,14.7529921 50.01,14.36 C50.1353897,14.0664376 50.3725788,13.8349339 50.6690965,13.7167022 C50.9656141,13.5984705 51.2970198,13.603256 51.59,13.73 L53.24,14.44 C53.8326485,14.7086176 54.1032387,15.4006188 53.85,16 C53.6713672,16.3929921 53.7159625,16.8514313 53.9669873,17.2026279 C54.2180121,17.5538246 54.6373297,17.7444235 55.0669873,17.7026279 C55.4966449,17.6608324 55.8713672,17.3929921 56.05,17 C56.8228481,15.3036634 56.4510972,13.3050028 55.12,12 L55,11.87 L52.2,10.69 Z" id="Path" fill="#FFFFFF" fill-rule="nonzero"></path>
                <path d="M52.2,10.69 L52,10.69 C50.1887199,10.6393329 48.5291786,11.6968449 47.81,13.36 C47.6313672,13.7529921 47.6759625,14.2114313 47.9269873,14.5626279 C48.1780121,14.9138246 48.5973297,15.1044235 49.0269873,15.0626279 C49.4566449,15.0208324 49.8313672,14.7529921 50.01,14.36 C50.1353897,14.0664376 50.3725788,13.8349339 50.6690965,13.7167022 C50.9656141,13.5984705 51.2970198,13.603256 51.59,13.73 L53.24,14.44 C53.8326485,14.7086176 54.1032387,15.4006188 53.85,16 C53.6713672,16.3929921 53.7159625,16.8514313 53.9669873,17.2026279 C54.2180121,17.5538246 54.6373297,17.7444235 55.0669873,17.7026279 C55.4966449,17.6608324 55.8713672,17.3929921 56.05,17 C56.8228481,15.3036634 56.4510972,13.3050028 55.12,12 L55,11.87 L52.2,10.69 Z" id="Path" stroke="#4550E5" stroke-linejoin="round"></path>
                <rect id="Rectangle" stroke="#4550E5" fill="#D6DAFF" fill-rule="nonzero" stroke-linejoin="round" transform="translate(22.600000, 15.250000) rotate(180.000000) translate(-22.600000, -15.250000) " x="20.5" y="12.85" width="4.2" height="4.8"></rect>
                <path d="M19.64,11.87 L22.39,10.68 L20.39,5.96 C20.0368678,5.24216477 19.1825405,4.92778185 18.4483396,5.2454906 C17.7141387,5.56319935 17.3584706,6.40118025 17.64,7.15 L19.64,11.87 Z" id="Path" fill="#D6DAFF" fill-rule="nonzero"></path>
                <path d="M19.64,11.87 L22.39,10.68 L20.39,5.96 C20.0368678,5.24216477 19.1825405,4.92778185 18.4483396,5.2454906 C17.7141387,5.56319935 17.3584706,6.40118025 17.64,7.15 L19.64,11.87 Z" id="Path" stroke="#4550E5" stroke-linejoin="round"></path>
                <path d="M22.39,10.69 L22.62,10.69 C24.4312801,10.6393329 26.0908214,11.6968449 26.81,13.36 C26.9886328,13.7529921 26.9440375,14.2114313 26.6930127,14.5626279 C26.4419879,14.9138246 26.0226703,15.1044235 25.5930127,15.0626279 C25.1633551,15.0208324 24.7886328,14.7529921 24.61,14.36 C24.4948476,14.0497995 24.2567207,13.8009124 23.9519087,13.672172 C23.6470968,13.5434315 23.3026535,13.5462641 23,13.68 L21.35,14.39 C21.0541391,14.5207603 20.8235976,14.7654256 20.7106394,15.0685302 C20.5976811,15.3716348 20.6118738,15.7075053 20.75,16 C21.0261424,16.6075132 20.7575132,17.3238576 20.15,17.6 C19.5424868,17.8761424 18.8261424,17.6075132 18.55,17 C17.7746367,15.3057069 18.1423369,13.3073363 19.47,12 L19.63,11.84 L22.39,10.69 Z" id="Path" fill="#FFFFFF" fill-rule="nonzero"></path>
                <path d="M22.39,10.69 L22.62,10.69 C24.4312801,10.6393329 26.0908214,11.6968449 26.81,13.36 C26.9886328,13.7529921 26.9440375,14.2114313 26.6930127,14.5626279 C26.4419879,14.9138246 26.0226703,15.1044235 25.5930127,15.0626279 C25.1633551,15.0208324 24.7886328,14.7529921 24.61,14.36 C24.4948476,14.0497995 24.2567207,13.8009124 23.9519087,13.672172 C23.6470968,13.5434315 23.3026535,13.5462641 23,13.68 L21.35,14.39 C21.0541391,14.5207603 20.8235976,14.7654256 20.7106394,15.0685302 C20.5976811,15.3716348 20.6118738,15.7075053 20.75,16 C21.0261424,16.6075132 20.7575132,17.3238576 20.15,17.6 C19.5424868,17.8761424 18.8261424,17.6075132 18.55,17 C17.7746367,15.3057069 18.1423369,13.3073363 19.47,12 L19.63,11.84 L22.39,10.69 Z" id="Path" stroke="#4550E5" stroke-linejoin="round"></path>
                <path d="M40.45,25.44 C40.5489791,25.2645234 40.5479738,25.0498311 40.4473555,24.8752892 C40.3467372,24.7007473 40.1614539,24.5922858 39.96,24.59 L36.53,24.59 C36.334252,24.5916061 36.1530221,24.6935479 36.05,24.86 L32.61,30.42 C32.5016047,30.5951026 32.4960898,30.8150583 32.5955738,30.9953731 C32.6950578,31.1756878 32.8840688,31.2883189 33.09,31.29 L36.8,31.29 L35.69,35.49 C35.6092548,35.7544125 35.7298957,36.0386452 35.9761819,36.1642512 C36.2224681,36.2898571 36.5233804,36.2206165 36.69,36 L41.96,29.64 C42.0987431,29.4696847 42.1272663,29.2347975 42.0333184,29.0362257 C41.9393705,28.837654 41.7396734,28.7107419 41.52,28.71 L38.58,28.71 L40.45,25.44 Z" id="Path" stroke="#4550E5" fill="#D6DAFF" fill-rule="nonzero" stroke-linecap="round" stroke-linejoin="round"></path>
                <path d="M56.29,5.21 C58.2298294,1.77413155 62.1355499,-0.0530283888 66.016254,0.659899347 C69.8969581,1.37282708 72.8982312,4.46887721 73.4902,8.36986465 C74.0821688,12.2708521 72.1344995,16.1178965 68.64,17.95 C66.0147036,19.3241427 64.363992,22.0368508 64.35,25 L64.35,40.5" id="Path" stroke="#4550E5" stroke-linejoin="round"></path>
                <path d="M18,5.21 C16.0515646,1.79654594 12.1587717,-0.0128736054 8.29321964,0.698165336 C4.42766758,1.40920428 1.43354992,4.48541872 0.827309406,8.36878601 C0.221068896,12.2521533 2.13510172,16.0945893 5.6,17.95 C8.22529635,19.3241427 9.87600803,22.0368508 9.89,25 L9.89,40.5" id="Path" stroke="#4550E5" stroke-linejoin="round"></path>
            </g>
        </g>
    </g>
</svg>

<svg width="89" height="62" xmlns="http://www.w3.org/2000/svg"><g fill="none" fill-rule="evenodd"><path d="M84.1 40A40 40 0 1 0 7.66 56.5h72.88A39.84 39.84 0 0 0 84.1 40Z" fill="#F0F2FF" fill-rule="nonzero"/><path stroke="#4550E5" stroke-linecap="round" stroke-linejoin="round" d="M5.1 56.5h78M.6 56.5h2.5M85.1 56.5h2.5"/><g transform="translate(7 16)"><path fill="#FFF" fill-rule="nonzero" d="M18.7 21.24h37.2v18H18.7z"/><ellipse fill="#F0F2FF" fill-rule="nonzero" cx="37.39" cy="43.74" rx="23.49" ry="1.5"/><path stroke="#4550E5" stroke-linejoin="round" d="M18.7 21.24h37.2v18H18.7z"/><path d="M18.7 39.24h37.2a2.4 2.4 0 0 1 2.4 2.4v.2a1 1 0 0 1-1 1h-40a1 1 0 0 1-1-1v-.2a2.4 2.4 0 0 1 2.4-2.4Z" stroke="#4550E5" fill="#D6DAFF" fill-rule="nonzero" stroke-linejoin="round"/><rect fill="#D6DAFF" fill-rule="nonzero" x="17.5" y="17.64" width="39.6" height="3.6" rx="1.2"/><rect stroke="#4550E5" stroke-linejoin="round" x="17.5" y="17.64" width="39.6" height="3.6" rx="1.2"/><path stroke="#4550E5" fill="#D6DAFF" fill-rule="nonzero" stroke-linejoin="round" d="M49.9 12.84h4.2v4.8h-4.2z"/><path d="M30.7 14h13.2a1.2 1.2 0 0 1 1.2 1.2v2.4H29.5v-2.4a1.2 1.2 0 0 1 1.2-1.2Z" fill="#D6DAFF" fill-rule="nonzero"/><path d="M30.7 14h13.2a1.2 1.2 0 0 1 1.2 1.2v2.4H29.5v-2.4a1.2 1.2 0 0 1 1.2-1.2Z" stroke="#4550E5" stroke-linejoin="round"/><path d="m55 11.87-2.8-1.18 2-4.72A1.52 1.52 0 0 1 57 7.15l-2 4.72Z" fill="#D6DAFF" fill-rule="nonzero"/><path d="m55 11.87-2.8-1.18 2-4.72A1.52 1.52 0 0 1 57 7.15l-2 4.72Z" stroke="#4550E5" stroke-linejoin="round"/><path d="M52.2 10.69H52a4.43 4.43 0 0 0-4.19 2.67 1.208 1.208 0 1 0 2.2 1 1.2 1.2 0 0 1 1.58-.63l1.65.71a1.2 1.2 0 0 1 .61 1.56 1.208 1.208 0 1 0 2.2 1 4.43 4.43 0 0 0-.93-5l-.12-.13-2.8-1.18Z" fill="#FFF" fill-rule="nonzero"/><path d="M52.2 10.69H52a4.43 4.43 0 0 0-4.19 2.67 1.208 1.208 0 1 0 2.2 1 1.2 1.2 0 0 1 1.58-.63l1.65.71a1.2 1.2 0 0 1 .61 1.56 1.208 1.208 0 1 0 2.2 1 4.43 4.43 0 0 0-.93-5l-.12-.13-2.8-1.18Z" stroke="#4550E5" stroke-linejoin="round"/><path stroke="#4550E5" fill="#D6DAFF" fill-rule="nonzero" stroke-linejoin="round" d="M24.7 17.65h-4.2v-4.8h4.2z"/><path d="m19.64 11.87 2.75-1.19-2-4.72a1.5 1.5 0 0 0-2.75 1.19l2 4.72Z" fill="#D6DAFF" fill-rule="nonzero"/><path d="m19.64 11.87 2.75-1.19-2-4.72a1.5 1.5 0 0 0-2.75 1.19l2 4.72Z" stroke="#4550E5" stroke-linejoin="round"/><path d="M22.39 10.69h.23a4.43 4.43 0 0 1 4.19 2.67 1.208 1.208 0 1 1-2.2 1 1.2 1.2 0 0 0-1.61-.68l-1.65.71a1.2 1.2 0 0 0-.6 1.61 1.208 1.208 0 0 1-2.2 1 4.43 4.43 0 0 1 .92-5l.16-.16 2.76-1.15Z" fill="#FFF" fill-rule="nonzero"/><path d="M22.39 10.69h.23a4.43 4.43 0 0 1 4.19 2.67 1.208 1.208 0 1 1-2.2 1 1.2 1.2 0 0 0-1.61-.68l-1.65.71a1.2 1.2 0 0 0-.6 1.61 1.208 1.208 0 0 1-2.2 1 4.43 4.43 0 0 1 .92-5l.16-.16 2.76-1.15Z" stroke="#4550E5" stroke-linejoin="round"/><path d="M40.45 25.44a.57.57 0 0 0-.49-.85h-3.43a.57.57 0 0 0-.48.27l-3.44 5.56a.57.57 0 0 0 .48.87h3.71l-1.11 4.2a.57.57 0 0 0 1 .51l5.27-6.36a.57.57 0 0 0-.44-.93h-2.94l1.87-3.27Z" stroke="#4550E5" fill="#D6DAFF" fill-rule="nonzero" stroke-linecap="round" stroke-linejoin="round"/><path d="M56.29 5.21a9.25 9.25 0 1 1 12.35 12.74A8 8 0 0 0 64.35 25v15.5M18 5.21A9.25 9.25 0 1 0 5.6 17.95 8 8 0 0 1 9.89 25v15.5" stroke="#4550E5" stroke-linejoin="round"/></g></g></svg>
